icon-themes/sifr_svg/cmd/lc_helplinesuse.svg

<svg viewBox="0 0 24 24" xmlns="http://www.w3.org/2000/svg"><path d="m4 2v3h2v-3zm5 0v3h3v-3zm4 0v3h4c1.1 0 2 .9 2 2s-.9 2-2 2h-4v3h4c2.761424 0 5-2.2385763 5-5s-2.238576-5-5-5zm-9 5v3h2v-3zm5 2v3h3v-3zm-5 3v3h2v-3zm0 5v1h-2v2h2v2h2v-2h1v-2h-1v-1zm5 1v2h3v-2zm5 0v2h3v-2zm5 0v2h3v-2z" fill="#555753"/></svg>

<svg xmlns="http://www.w3.org/2000/svg" viewBox="0 0 24 24">
  <path
     style="fill:#555753"
     d="M 4 2 L 4 5 L 6 5 L 6 2 L 4 2 z M 9 2 L 9 5 L 12 5 L 12 2 L 9 2 z M 13 2 L 13 5 L 17 5 C 18.1 5 19 5.9 19 7 C 19 8.1 18.1 9 17 9 L 13 9 L 13 12 L 17 12 C 19.761424 12 22 9.7614237 22 7 C 22 4.2385763 19.761424 2 17 2 L 13 2 z M 4 7 L 4 10 L 6 10 L 6 7 L 4 7 z M 9 9 L 9 12 L 12 12 L 12 9 L 9 9 z M 4 12 L 4 15 L 6 15 L 6 12 L 4 12 z M 4 17 L 4 18 L 2 18 L 2 20 L 4 20 L 4 22 L 6 22 L 6 20 L 7 20 L 7 18 L 6 18 L 6 17 L 4 17 z M 9 18 L 9 20 L 12 20 L 12 18 L 9 18 z M 14 18 L 14 20 L 17 20 L 17 18 L 14 18 z M 19 18 L 19 20 L 22 20 L 22 18 L 19 18 z "
     />
</svg>
